;FLAVOR:Marlin
;TIME:15288
;Filament used: 9.0344m
;Layer height: 0.2
;MINX:87.769
;MINY:20.9
;MINZ:0.2
;MAXX:132.232
;MAXY:199.1
;MAXZ:25.4
;Generated with Creality Slicer 4.8.2-69
M140 S60
M105
M190 S60
M104 S200
M105
M109 S200
M82 ;absolute extrusion mode
M201 X500.00 Y500.00 Z100.00 E5000.00 ;Setup machine max acceleration
M203 X500.00 Y500.00 Z10.00 E50.00 ;Setup machine max feedrate
M204 P500.00 R1000.00 T500.00 ;Setup Print/Retract/Travel acceleration
M205 X8.00 Y8.00 Z0.40 E5.00 ;Setup Jerk
M220 S100 ;Reset Feedrate
M221 S100 ;Reset Flowrate

G28 ;Home

G92 E0 ;Reset Extruder
G1 Z2.0 F3000 ;Move Z Axis up
G1 X10.1 Y20 Z0.28 F5000.0 ;Move to start position
G1 X10.1 Y200.0 Z0.28 F1500.0 E15 ;Draw the first line
G1 X10.4 Y200.0 Z0.28 F5000.0 ;Move to side a little
G1 X10.4 Y20 Z0.28 F1500.0 E30 ;Draw the second line
G92 E0 ;Reset Extruder
G1 Z2.0 F3000 ;Move Z Axis up

G92 E0
G92 E0
G1 F3600 E-8
;LAYER_COUNT:127
;LAYER:0
M107
G0 F6000 X88.267 Y28.961 Z0.2
;TYPE:SKIRT
G1 F3600 E0
G1 F1200 X88.556 Y28.069 E0.03119
G1 X88.921 Y27.205 E0.06238
G1 X89.358 Y26.375 E0.09358
G1 X89.864 Y25.586 E0.12476
G1 X90.435 Y24.842 E0.15595
G1 X91.068 Y24.15 E0.18714
G1 X91.757 Y23.514 E0.21833
G1 X92.498 Y22.939 E0.24952
G1 X93.286 Y22.429 E0.28074
G1 X94.114 Y21.989 E0.31193
G1 X94.976 Y21.62 E0.34312
G1 X95.867 Y21.326 E0.37432
G1 X96.779 Y21.109 E0.4055
G1 X97.707 Y20.971 E0.43671
G1 X98.579 Y20.914 E0.46577
G1 X98.965 Y20.904 E0.47862
G1 X99.25 Y20.9 E0.4881
G1 X105.557 Y20.901 E0.69787
G1 X106.573 Y20.915 E0.73166
G1 X108.716 Y20.976 E0.80297
G1 X111.236 Y20.976 E0.88678
G1 X113.385 Y20.916 E0.95829
G1 X114.467 Y20.901 E0.99428
G1 X120.52 Y20.9 E1.1956
G1 X121.376 Y20.911 E1.22407
G1 X122.312 Y20.965 E1.25526
G1 X123.24 Y21.097 E1.28643
G1 X124.154 Y21.309 E1.31764
G1 X125.046 Y21.598 E1.34883
G1 X125.911 Y21.961 E1.38003
G1 X126.741 Y22.397 E1.41121
G1 X127.532 Y22.902 E1.44242
G1 X128.276 Y23.473 E1.47362
G1 X128.969 Y24.105 E1.50481
G1 X129.606 Y24.793 E1.536
G1 X130.181 Y25.534 E1.56719
G1 X130.692 Y26.32 E1.59837
G1 X131.134 Y27.148 E1.62959
G1 X131.503 Y28.01 E1.66078
G1 X131.798 Y28.9 E1.69196
G1 X132.016 Y29.812 E1.72315
G1 X132.156 Y30.74 E1.75437
G1 X132.214 Y31.601 E1.78307
G1 X132.223 Y31.921 E1.79372
G1 X132.227 Y32.226 E1.80386
G1 X132.232 Y45.948 E2.26026
G1 X132.232 Y95.546 E3.90989
G1 X132.227 Y96.266 E3.93384
G1 X132.174 Y100.444 E4.07281
G1 X132.184 Y102.856 E4.15304
G1 X132.179 Y102.979 E4.15713
G1 X132.227 Y109.172 E4.36312
G1 X132.23 Y109.999 E4.39062
G1 X132.232 Y131.231 E5.0968
G1 X132.23 Y131.452 E5.10415
G1 X132.231 Y173.28 E6.49536
G1 X132.214 Y174.68 E6.54193
G1 X132.198 Y175.317 E6.56312
G1 X132.172 Y177.031 E6.62013
G1 X132.154 Y179.865 E6.7144
G1 X132.152 Y181.103 E6.75557
G1 X132.16 Y182.376 E6.79791
G1 X132.223 Y187.389 E6.96466
G1 X132.222 Y188.104 E6.98844
G1 X132.181 Y189.041 E7.01963
G1 X132.06 Y189.971 E7.05083
G1 X131.86 Y190.888 E7.08204
G1 X131.583 Y191.784 E7.11324
G1 X131.231 Y192.653 E7.14442
G1 X130.805 Y193.489 E7.17563
G1 X130.311 Y194.286 E7.20682
G1 X129.75 Y195.037 E7.23799
G1 X129.127 Y195.738 E7.26919
G1 X128.446 Y196.384 E7.30041
G1 X127.714 Y196.969 E7.33157
G1 X126.934 Y197.49 E7.36277
G1 X126.112 Y197.942 E7.39397
G1 X125.255 Y198.323 E7.42516
G1 X124.237 Y198.668 E7.46091
G1 X123.325 Y198.887 E7.49211
G1 X122.398 Y199.027 E7.52329
G1 X121.363 Y199.09 E7.55778
G1 X120.548 Y199.1 E7.58489
G1 X114.42 Y199.099 E7.78871
G1 X113.161 Y199.08 E7.83059
G1 X111.259 Y199.027 E7.89387
G1 X108.696 Y199.029 E7.97912
G1 X107.404 Y199.057 E8.0221
G1 X106.137 Y199.094 E8.06426
G1 X105.82 Y199.099 E8.0748
G1 X99.314 Y199.099 E8.29119
G1 X98.636 Y199.089 E8.31375
G1 X97.699 Y199.035 E8.34496
G1 X96.771 Y198.902 E8.37614
G1 X95.858 Y198.69 E8.40732
G1 X94.965 Y198.401 E8.43854
G1 X94.101 Y198.037 E8.46972
G1 X93.271 Y197.6 E8.50092
G1 X92.481 Y197.095 E8.5321
G1 X91.737 Y196.524 E8.5633
G1 X90.823 Y195.666 E8.60499
G1 X90.188 Y194.939 E8.6371
G1 X89.634 Y194.183 E8.66827
G1 X89.146 Y193.381 E8.69949
G1 X88.729 Y192.541 E8.73069
G1 X88.384 Y191.669 E8.76188
G1 X88.116 Y190.771 E8.79305
G1 X87.924 Y189.852 E8.82427
G1 X87.812 Y188.921 E8.85546
G1 X87.789 Y187.598 E8.89947
G1 X87.824 Y186.788 E8.92644
G1 X87.899 Y184.134 E9.01474
G1 X87.908 Y182.84 E9.05778
G1 X87.908 Y179.126 E9.18131
G1 X87.871 Y176.499 E9.26869
G1 X87.792 Y174.587 E9.33234
G1 X87.778 Y174.06 E9.34988
G1 X87.774 Y173.795 E9.35869
G1 X87.773 Y173.264 E9.37635
G1 X87.826 Y167.164 E9.57925
G1 X87.83 Y166.339 E9.60669
G1 X87.83 Y163.914 E9.68734
G1 X87.832 Y163.244 E9.70963
G1 X87.851 Y160.237 E9.80964
G1 X87.851 Y159.069 E9.84849
G1 X87.831 Y155.7 E9.96055
G1 X87.831 Y149.813 E10.15635
G1 X87.842 Y148.71 E10.19304
G1 X87.869 Y147.354 E10.23815
G1 X87.87 Y143.614 E10.36254
G1 X87.842 Y142.135 E10.41174
G1 X87.831 Y141.052 E10.44776
G1 X87.831 Y135.613 E10.62866
G1 X87.842 Y134.51 E10.66535
G1 X87.869 Y133.154 E10.71046
G1 X87.87 Y129.411 E10.83495
G1 X87.845 Y128.082 E10.87916
G1 X87.837 Y126.578 E10.92919
G1 X87.849 Y125.189 E10.97539
G1 X87.851 Y123.808 E11.02132
G1 X87.77 Y110.405 E11.46711
G1 X87.772 Y109.538 E11.49595
G1 X87.848 Y100.922 E11.78253
G1 X87.849 Y99.451 E11.83146
G1 X87.771 Y89.123 E12.17498
G1 X87.769 Y88.368 E12.20009
G1 X87.847 Y69.213 E12.83719
G1 X87.847 Y68.852 E12.8492
G1 X87.837 Y67.47 E12.89517
G1 X87.825 Y66.496 E12.92756
G1 X87.854 Y58.574 E13.19105
G1 X87.855 Y42.258 E13.73372
G1 X87.881 Y40.44 E13.7942
G1 X87.871 Y37.247 E13.9004
G1 X87.866 Y36.916 E13.91141
G1 X87.855 Y35.788 E13.94893
G1 X87.855 Y32.383 E14.06218
G1 X87.865 Y31.739 E14.0836
G1 X87.92 Y30.803 E14.11478
G1 X88.054 Y29.875 E14.14597
G1 X88.267 Y28.961 E14.17718
G0 F6000 X88.666 Y29.02
G1 F1200 X88.955 Y28.146 E14.2078
G1 X89.319 Y27.3 E14.23843
G1 X89.755 Y26.489 E14.26906
G1 X90.26 Y25.719 E14.29969
G1 X90.829 Y24.996 E14.33029
G1 X91.46 Y24.325 E14.36092
G1 X92.146 Y23.711 E14.39154
G1 X92.883 Y23.159 E14.42217
G1 X93.664 Y22.673 E14.45276
G1 X94.486 Y22.257 E14.48341
G1 X95.34 Y21.913 E14.51403
G1 X96.22 Y21.645 E14.54462
G1 X97.121 Y21.454 E14.57526
G1 X98.035 Y21.342 E14.60588
G1 X98.589 Y21.314 E14.62433
G1 X98.975 Y21.304 E14.63718
G1 X99.25 Y21.3 E14.64632
G1 X105.551 Y21.301 E14.8559
G1 X106.726 Y21.318 E14.89498
G1 X108.738 Y21.376 E14.96193
G1 X111.247 Y21.376 E15.04538
G1 X113.554 Y21.313 E15.12214
G1 X114.611 Y21.3 E15.1573
G1 X120.672 Y21.301 E15.35889
G1 X121.37 Y21.311 E15.3821
G1 X122.289 Y21.364 E15.41272
G1 X123.2 Y21.497 E15.44334
G1 X124.096 Y21.708 E15.47396
G1 X124.97 Y21.996 E15.50456
G1 X125.817 Y22.359 E15.53521
G1 X126.628 Y22.794 E15.56582
G1 X127.398 Y23.298 E15.59643
G1 X128.122 Y23.867 E15.62706
G1 X128.794 Y24.497 E15.6577
G1 X129.409 Y25.182 E15.68831
G1 X129.962 Y25.918 E15.71893
G1 X130.449 Y26.699 E15.74955
G1 X130.866 Y27.52 E15.78017
G1 X131.211 Y28.374 E15.81081
G1 X131.48 Y29.254 E15.84141
G1 X131.672 Y30.155 E15.87205
G1 X131.785 Y31.068 E15.90265
G1 X131.814 Y31.612 E15.92077
G1 X131.823 Y31.932 E15.93142
G1 X131.827 Y32.226 E15.9412
G1 X131.832 Y45.948 E16.39759
G1 X131.832 Y95.543 E18.04713
G1 X131.827 Y96.261 E18.07101
G1 X131.774 Y100.44 E18.21002
G1 X131.784 Y102.857 E18.29041
G1 X131.779 Y102.979 E18.29447
G1 X131.827 Y109.175 E18.50055
G1 X131.83 Y109.999 E18.52796
G1 X131.832 Y131.227 E19.23401
G1 X131.83 Y131.448 E19.24136
G1 X131.831 Y173.276 E20.63256
G1 X131.814 Y174.67 E20.67893
G1 X131.798 Y175.307 E20.70012
G1 X131.772 Y177.025 E20.75727
G1 X131.754 Y179.863 E20.85167
G1 X131.752 Y181.105 E20.89297
G1 X131.76 Y182.378 E20.93532
G1 X131.823 Y187.389 E21.102
G1 X131.822 Y188.104 E21.12578
G1 X131.781 Y189.024 E21.15641
G1 X131.66 Y189.936 E21.18701
G1 X131.46 Y190.835 E21.21764
G1 X131.183 Y191.713 E21.24826
G1 X130.831 Y192.564 E21.27889
G1 X130.407 Y193.381 E21.3095
G1 X129.913 Y194.158 E21.34013
G1 X129.354 Y194.889 E21.37073
G1 X128.733 Y195.569 E21.40136
G1 X128.055 Y196.192 E21.43199
G1 X127.327 Y196.755 E21.4626
G1 X126.552 Y197.252 E21.49322
G1 X125.736 Y197.68 E21.52387
G1 X124.887 Y198.035 E21.55447
G1 X124.127 Y198.283 E21.58106
G1 X123.232 Y198.497 E21.61167
G1 X122.321 Y198.633 E21.64231
G1 X121.358 Y198.69 E21.67439
G1 X120.548 Y198.7 E21.70133
G1 X114.425 Y198.699 E21.90499
G1 X113.172 Y198.68 E21.94667
G1 X111.27 Y198.627 E22.00995
G1 X108.687 Y198.629 E22.09586
G1 X107.434 Y198.657 E22.13755
G1 X106.126 Y198.695 E22.18107
G1 X105.82 Y198.699 E22.19125
G1 X99.32 Y198.699 E22.40744
G1 X98.642 Y198.689 E22.42999
G1 X97.723 Y198.635 E22.46061
G1 X96.812 Y198.502 E22.49123
G1 X95.916 Y198.291 E22.52185
G1 X95.041 Y198.002 E22.5525
G1 X94.195 Y197.639 E22.58312
G1 X93.384 Y197.203 E22.61374
G1 X92.614 Y196.699 E22.64435
G1 X91.89 Y196.13 E22.67498
G1 X91.094 Y195.371 E22.71156
G1 X90.489 Y194.676 E22.74221
G1 X89.948 Y193.932 E22.7728
G1 X89.472 Y193.144 E22.80342
G1 X89.067 Y192.317 E22.83405
G1 X88.735 Y191.458 E22.86468
G1 X88.479 Y190.574 E22.89529
G1 X88.301 Y189.671 E22.9259
G1 X88.201 Y188.755 E22.95655
G1 X88.189 Y187.616 E22.99443
G1 X88.223 Y186.819 E23.02097
G1 X88.299 Y184.148 E23.10984
G1 X88.308 Y182.843 E23.15325
G1 X88.308 Y179.12 E23.27707
G1 X88.271 Y176.515 E23.36372
G1 X88.197 Y174.737 E23.42291
G1 X88.178 Y174.049 E23.4458
G1 X88.174 Y173.794 E23.45429
G1 X88.173 Y173.268 E23.47178
G1 X88.226 Y167.168 E23.67468
G1 X88.23 Y166.341 E23.70218
G1 X88.23 Y163.916 E23.78284
G1 X88.232 Y163.247 E23.80509
G1 X88.251 Y160.24 E23.9051
G1 X88.251 Y159.069 E23.94405
G1 X88.231 Y155.7 E24.05611
G1 X88.231 Y149.817 E24.25178
G1 X88.242 Y148.718 E24.28833
G1 X88.269 Y147.362 E24.33344
G1 X88.27 Y143.606 E24.45837
G1 X88.242 Y142.131 E24.50743
G1 X88.231 Y141.052 E24.54332
G1 X88.231 Y135.617 E24.72409
G1 X88.242 Y134.518 E24.76065
G1 X88.269 Y133.162 E24.80576
G1 X88.27 Y129.403 E24.93078
G1 X88.245 Y128.08 E24.97479
G1 X88.237 Y126.581 E25.02465
G1 X88.249 Y125.192 E25.07085
G1 X88.251 Y123.808 E25.11688
G1 X88.17 Y110.406 E25.56264
G1 X88.172 Y109.542 E25.59138
G1 X88.248 Y100.926 E25.87796
G1 X88.249 Y99.448 E25.92712
G1 X88.171 Y89.122 E26.27057
G1 X88.169 Y88.37 E26.29558
G1 X88.247 Y69.215 E26.93269
G1 X88.247 Y68.849 E26.94486
G1 X88.237 Y67.467 E26.99083
G1 X88.225 Y66.497 E27.02309
G1 X88.254 Y58.575 E27.28658
G1 X88.255 Y42.264 E27.82909
G1 X88.281 Y40.445 E27.88959
G1 X88.271 Y37.238 E27.99626
G1 X88.266 Y36.913 E28.00707
G1 X88.255 Y35.788 E28.04449
G1 X88.255 Y32.389 E28.15754
G1 X88.265 Y31.745 E28.17896
G1 X88.32 Y30.826 E28.20958
G1 X88.453 Y29.915 E28.2402
G1 X88.666 Y29.02 E28.2708
G0 F6000 X89.065 Y29.079
G1 F1200 X89.354 Y28.223 E28.30085
G1 X89.717 Y27.397 E28.33086
G1 X90.152 Y26.605 E28.36091
G1 X90.655 Y25.855 E28.39095
G1 X91.223 Y25.153 E28.42098
G1 X91.851 Y24.504 E28.45102
G1 X92.533 Y23.912 E28.48106
G1 X93.266 Y23.384 E28.51111
G1 X94.042 Y22.922 E28.54114
G1 X94.856 Y22.531 E28.57118
G1 X95.701 Y22.213 E28.60121
G1 X96.571 Y21.971 E28.63124
G1 X97.459 Y21.807 E28.66128
G1 X98.6 Y21.713 E28.69936
G1 X98.986 Y21.703 E28.7122
G1 X99.25 Y21.7 E28.72098
G1 X105.546 Y21.701 E28.93039
G1 X106.715 Y21.718 E28.96927
G1 X108.727 Y21.776 E29.03622
G1 X111.258 Y21.776 E29.1204
G1 X113.559 Y21.713 E29.19696
G1 X114.611 Y21.7 E29.23195
G1 X120.666 Y21.701 E29.43334
G1 X121.364 Y21.711 E29.45656
G1 X122.266 Y21.764 E29.48661
G1 X123.159 Y21.896 E29.51664
G1 X124.037 Y22.107 E29.54667
G1 X124.893 Y22.395 E29.57671
G1 X125.72 Y22.757 E29.60673
G1 X126.512 Y23.192 E29.63679
G1 X127.263 Y23.694 E29.66683
G1 X127.966 Y24.261 E29.69687
G1 X128.616 Y24.888 E29.72691
G1 X129.208 Y25.57 E29.75695
G1 X129.738 Y26.301 E29.78698
G1 X130.2 Y27.077 E29.81702
G1 X130.593 Y27.89 E29.84705
G1 X130.911 Y28.735 E29.87708
G1 X131.154 Y29.605 E29.90712
G1 X131.319 Y30.493 E29.93716
G1 X131.414 Y31.623 E29.97488
G1 X131.423 Y31.943 E29.98553
G1 X131.427 Y32.226 E29.99494
G1 X131.432 Y45.948 E30.45134
G1 X131.432 Y95.541 E32.10081
G1 X131.427 Y96.256 E32.12459
G1 X131.374 Y100.437 E32.26366
G1 X131.384 Y102.859 E32.34422
G1 X131.379 Y102.979 E32.34821
G1 X131.427 Y109.178 E32.5544
G1 X131.43 Y109.999 E32.5817
G1 X131.432 Y131.223 E33.28762
G1 X131.43 Y131.444 E33.29497
G1 X131.431 Y173.271 E34.68614
G1 X131.414 Y174.66 E34.73234
G1 X131.398 Y175.297 E34.75354
G1 X131.372 Y177.019 E34.81082
G1 X131.354 Y179.86 E34.90531
G1 X131.352 Y181.187 E34.94945
G1 X131.36 Y182.381 E34.98916
G1 X131.423 Y187.388 E35.15571
G1 X131.422 Y188.103 E35.17949
G1 X131.381 Y189.005 E35.20952
G1 X131.26 Y189.9 E35.23956
G1 X131.06 Y190.781 E35.2696
G1 X130.784 Y191.641 E35.29965
G1 X130.432 Y192.473 E35.32969
G1 X130.008 Y193.27 E35.35972
G1 X129.515 Y194.027 E35.38977
G1 X128.958 Y194.737 E35.41978
G1 X128.339 Y195.395 E35.44983
G1 X127.665 Y195.996 E35.47986
G1 X126.94 Y196.535 E35.50991
G1 X126.171 Y197.008 E35.53994
G1 X125.363 Y197.411 E35.56997
G1 X124.522 Y197.74 E35.6
G1 X124.017 Y197.899 E35.61761
G1 X123.139 Y198.108 E35.64763
G1 X122.245 Y198.239 E35.67768
G1 X121.353 Y198.29 E35.7074
G1 X120.548 Y198.3 E35.73418
G1 X114.431 Y198.299 E35.93763
G1 X113.183 Y198.28 E35.97914
G1 X111.281 Y198.227 E36.04243
G1 X108.725 Y198.229 E36.12744
G1 X107.366 Y198.259 E36.17265
G1 X106.114 Y198.295 E36.21431
G1 X105.82 Y198.299 E36.22409
G1 X99.326 Y198.299 E36.44008
G1 X98.648 Y198.289 E36.46264
G1 X97.746 Y198.236 E36.49269
G1 X96.853 Y198.103 E36.52272
G1 X95.975 Y197.891 E36.55276
G1 X95.119 Y197.603 E36.5828
G1 X94.292 Y197.241 E36.61282
G1 X93.5 Y196.806 E36.64288
G1 X92.75 Y196.303 E36.67291
G1 X92.047 Y195.736 E36.70295
G1 X91.384 Y195.095 E36.73362
G1 X90.792 Y194.414 E36.76364
G1 X90.262 Y193.682 E36.79369
G1 X89.799 Y192.907 E36.82372
G1 X89.406 Y192.094 E36.85375
G1 X89.087 Y191.249 E36.8838
G1 X88.844 Y190.379 E36.91384
G1 X88.678 Y189.491 E36.94389
G1 X88.592 Y188.592 E36.97392
G1 X88.588 Y187.633 E37.00582
G1 X88.625 Y186.78 E37.03422
G1 X88.699 Y184.161 E37.12136
G1 X88.708 Y182.846 E37.1651
G1 X88.708 Y179.114 E37.28923
G1 X88.671 Y176.492 E37.37644
G1 X88.592 Y174.566 E37.44056
G1 X88.578 Y174.039 E37.45809
G1 X88.574 Y173.793 E37.46627
G1 X88.573 Y173.271 E37.48363
G1 X88.626 Y167.171 E37.68653
G1 X88.63 Y166.343 E37.71407
G1 X88.63 Y163.917 E37.79476
G1 X88.632 Y163.25 E37.81694
G1 X88.651 Y160.243 E37.91696
G1 X88.651 Y159.069 E37.95601
G1 X88.631 Y155.7 E38.06806
G1 X88.631 Y149.821 E38.2636
G1 X88.642 Y148.726 E38.30002
G1 X88.669 Y147.37 E38.34513
G1 X88.67 Y143.598 E38.47059
G1 X88.642 Y142.127 E38.51952
G1 X88.631 Y141.052 E38.55528
G1 X88.631 Y135.621 E38.73591
G1 X88.642 Y134.526 E38.77233
G1 X88.669 Y133.17 E38.81744
G1 X88.67 Y129.396 E38.94297
G1 X88.645 Y128.078 E38.98681
G1 X88.637 Y126.585 E39.03647
G1 X88.649 Y125.196 E39.08267
G1 X88.651 Y123.809 E39.1288
G1 X88.57 Y110.407 E39.57456
G1 X88.572 Y109.545 E39.60323
G1 X88.648 Y100.929 E39.88981
G1 X88.649 Y99.445 E39.93917
G1 X88.571 Y89.121 E40.28256
G1 X88.569 Y88.371 E40.3075
G1 X88.647 Y69.216 E40.94461
G1 X88.647 Y68.846 E40.95691
G1 X88.637 Y67.464 E41.00288
G1 X88.625 Y66.499 E41.03498
G1 X88.654 Y58.577 E41.29847
G1 X88.655 Y42.27 E41.84084
G1 X88.681 Y40.449 E41.90141
G1 X88.671 Y37.228 E42.00854
G1 X88.665 Y36.909 E42.01916
G1 X88.655 Y35.788 E42.05644
G1 X88.655 Y32.396 E42.16926
G1 X88.665 Y31.752 E42.19068
G1 X88.719 Y30.85 E42.22074
G1 X88.853 Y29.957 E42.25077
G1 X89.065 Y29.079 E42.28081
G1 F3600 E34.28081
;MESH:RightCaseSubway.stl
G0 F6000 X98.116 Y188.753
G0 X106.766 Y188.753
G0 X113.189 Y180.434
G0 X114.271 Y180.695
G0 X114.469 Y187.5
;TYPE:WALL-INNER
G1 F3600 E42.28081
G1 F1200 X114.451 Y180.698 E42.50705
G1 X114.454 Y180.442 E42.51556
G1 X114.451 Y180.173 E42.52451
G1 X114.5 Y176.391 E42.65031
G1 X114.513 Y174.653 E42.70812
G1 X114.518 Y157.628 E43.27437
G1 X114.512 Y153.824 E43.4009
G1 X114.513 Y152.951 E43.42993
G1 X114.489 Y151.211 E43.48781
G1 X114.505 Y149.05 E43.55969
G1 X114.494 Y147.873 E43.59884
G1 X114.488 Y146.903 E43.6311
G1 X114.513 Y145.149 E43.68944
G1 X114.513 Y144.274 E43.71855
G1 X114.466 Y140.507 E43.84385
G1 X114.47 Y138.043 E43.9258
G1 X114.465 Y132.58 E44.1075
G1 X114.466 Y125.619 E44.33902
G1 X114.451 Y121.541 E44.47466
