;FLAVOR:Marlin
;TIME:4221
;Filament used: 2.60784m
;Layer height: 0.2
;MINX:35.466
;MINY:52.507
;MINZ:0.2
;MAXX:184.549
;MAXY:167.481
;MAXZ:10
;Generated with Creality Slicer 4.8.2-69
M140 S60
M105
M190 S60
M104 S200
M105
M109 S200
M82 ;absolute extrusion mode
M201 X500.00 Y500.00 Z100.00 E5000.00 ;Setup machine max acceleration
M203 X500.00 Y500.00 Z10.00 E50.00 ;Setup machine max feedrate
M204 P500.00 R1000.00 T500.00 ;Setup Print/Retract/Travel acceleration
M205 X8.00 Y8.00 Z0.40 E5.00 ;Setup Jerk
M220 S100 ;Reset Feedrate
M221 S100 ;Reset Flowrate

G28 ;Home

G92 E0 ;Reset Extruder
G1 Z2.0 F3000 ;Move Z Axis up
G1 X10.1 Y20 Z0.28 F5000.0 ;Move to start position
G1 X10.1 Y200.0 Z0.28 F1500.0 E15 ;Draw the first line
G1 X10.4 Y200.0 Z0.28 F5000.0 ;Move to side a little
G1 X10.4 Y20 Z0.28 F1500.0 E30 ;Draw the second line
G92 E0 ;Reset Extruder
G1 Z2.0 F3000 ;Move Z Axis up

G92 E0
G92 E0
G1 F3600 E-8
;LAYER_COUNT:50
;LAYER:0
M107
G0 F6000 X41.459 Y55.826 Z0.2
;TYPE:SKIRT
G1 F3600 E0
G1 F1200 X42.21 Y55.264 E0.0312
G1 X42.708 Y54.942 E0.05092
G1 X43.178 Y54.656 E0.06922
G1 X43.811 Y54.299 E0.09339
G1 X43.905 Y54.25 E0.09692
G1 X44.684 Y53.882 E0.12557
G1 X45.187 Y53.668 E0.14375
G1 X45.662 Y53.478 E0.16077
G1 X46.668 Y53.153 E0.19593
G1 X47.273 Y52.989 E0.21678
G1 X47.941 Y52.83 E0.23962
G1 X48.82 Y52.683 E0.26926
G1 X49.376 Y52.613 E0.2879
G1 X50.559 Y52.529 E0.32735
G1 X51.899 Y52.507 E0.37192
G1 X171.106 Y52.507 E4.33676
G1 X171.962 Y52.518 E4.36523
G1 X172.829 Y52.565 E4.39411
G1 X173.064 Y52.587 E4.40196
G1 X173.994 Y52.714 E4.43318
G1 X174.627 Y52.848 E4.4547
G1 X174.879 Y52.909 E4.46333
G1 X175.78 Y53.168 E4.49451
G1 X176.369 Y53.384 E4.51537
G1 X176.617 Y53.483 E4.52425
G1 X177.473 Y53.867 E4.55546
G1 X178.076 Y54.194 E4.57827
G1 X178.282 Y54.314 E4.5862
G1 X179.071 Y54.82 E4.61738
G1 X179.477 Y55.12 E4.63417
G1 X179.676 Y55.274 E4.64254
G1 X180.53 Y56.007 E4.67997
G1 X180.572 Y56.047 E4.6819
G1 X181.031 Y56.511 E4.70361
G1 X181.169 Y56.659 E4.71034
G1 X181.986 Y57.644 E4.7529
G1 X182.125 Y57.833 E4.7607
G1 X182.647 Y58.611 E4.79187
G1 X182.978 Y59.191 E4.81408
G1 X183.098 Y59.417 E4.82259
G1 X183.503 Y60.264 E4.85381
G1 X183.722 Y60.82 E4.87369
G1 X183.807 Y61.054 E4.88197
G1 X184.089 Y61.949 E4.91318
G1 X184.208 Y62.433 E4.92976
G1 X184.26 Y62.668 E4.93776
G1 X184.424 Y63.592 E4.96898
G1 X184.49 Y64.231 E4.99034
G1 X184.509 Y64.487 E4.99888
G1 X184.534 Y64.985 E5.01546
G1 X184.544 Y65.333 E5.02704
G1 X184.549 Y65.648 E5.03752
G1 X184.549 Y75.911 E5.37887
G1 X184.539 Y76.652 E5.40352
G1 X184.486 Y77.589 E5.43473
G1 X184.405 Y78.222 E5.45596
G1 X184.368 Y78.456 E5.46384
G1 X184.182 Y79.375 E5.49502
G1 X183.919 Y80.275 E5.52621
G1 X183.58 Y81.15 E5.55742
G1 X183.367 Y81.606 E5.57416
G1 X183.253 Y81.837 E5.58273
G1 X182.803 Y82.66 E5.61393
G1 X182.284 Y83.441 E5.64511
G1 X181.7 Y84.175 E5.67631
G1 X181.19 Y84.724 E5.70123
G1 X181.02 Y84.895 E5.70925
G1 X180.203 Y85.638 E5.74598
G1 X179.468 Y86.242 E5.77763
G1 X177.438 Y87.955 E5.86597
G1 X175.569 Y89.626 E5.94936
G1 X173.735 Y91.359 E6.03328
G1 X171.964 Y93.133 E6.11665
G1 X170.237 Y94.961 E6.20029
G1 X168.552 Y96.85 E6.28449
G1 X166.937 Y98.766 E6.36783
G1 X165.367 Y100.739 E6.45169
G1 X163.851 Y102.761 E6.53575
G1 X162.413 Y104.796 E6.61863
G1 X161.015 Y106.897 E6.70256
G1 X159.677 Y109.038 E6.78654
G1 X158.389 Y111.234 E6.87121
G1 X157.193 Y113.409 E6.95377
G1 X156.05 Y115.641 E7.03717
G1 X154.95 Y117.943 E7.12203
G1 X153.926 Y120.253 E7.20607
G1 X152.972 Y122.576 E7.28959
G1 X152.101 Y124.892 E7.37189
G1 X151.266 Y127.309 E7.45694
G1 X150.523 Y129.677 E7.53949
G1 X149.825 Y132.143 E7.62473
G1 X149.22 Y134.536 E7.70683
G1 X148.662 Y137.031 E7.79186
G1 X148.189 Y139.491 E7.87518
G1 X147.783 Y141.963 E7.9585
G1 X147.443 Y144.477 E8.04288
G1 X147.179 Y146.955 E8.12576
G1 X146.983 Y149.471 E8.2097
G1 X146.854 Y152.071 E8.29628
G1 X146.816 Y153.35 E8.33884
G1 X146.749 Y154.285 E8.37002
G1 X146.602 Y155.212 E8.40124
G1 X146.376 Y156.122 E8.43242
G1 X146.074 Y157.01 E8.46362
G1 X145.698 Y157.869 E8.49481
G1 X145.249 Y158.692 E8.52599
G1 X144.732 Y159.475 E8.5572
G1 X143.844 Y160.552 E8.60362
G1 X143.632 Y160.778 E8.61393
G1 X143.387 Y161.03 E8.62562
G1 X140.529 Y163.887 E8.76003
G1 X140.04 Y164.363 E8.78272
G1 X139.34 Y164.988 E8.81394
G1 X138.59 Y165.551 E8.84513
G1 X137.795 Y166.048 E8.87631
G1 X136.96 Y166.476 E8.90752
G1 X136.092 Y166.831 E8.93871
G1 X135.197 Y167.111 E8.9699
G1 X134.281 Y167.313 E9.0011
G1 X133.352 Y167.437 E9.03227
G1 X132.415 Y167.481 E9.06347
G1 X131.478 Y167.445 E9.09466
G1 X130.547 Y167.329 E9.12586
G1 X129.629 Y167.135 E9.15707
G1 X128.732 Y166.863 E9.18825
G1 X127.861 Y166.516 E9.21943
G1 X127.022 Y166.095 E9.25065
G1 X126.223 Y165.605 E9.28183
G1 X125.468 Y165.048 E9.31303
G1 X124.794 Y164.459 E9.3428
G1 X124.558 Y164.235 E9.35362
G1 X124.353 Y164.035 E9.36315
G1 X44.354 Y84.035 E13.12608
G1 X43.885 Y83.553 E13.14845
G1 X43.472 Y83.105 E13.16872
G1 X43.162 Y82.746 E13.18449
G1 X41.817 Y81.15 E13.25391
G1 X40.149 Y79.281 E13.33723
G1 X39.732 Y78.834 E13.35756
G1 X39.368 Y78.429 E13.37567
G1 X39.077 Y78.09 E13.39053
G1 X38.938 Y77.921 E13.39781
G1 X38.696 Y77.616 E13.41076
G1 X38.631 Y77.531 E13.41432
G1 X38.17 Y76.881 E13.44082
G1 X37.869 Y76.422 E13.45908
G1 X37.374 Y75.588 E13.49134
G1 X37.3 Y75.45 E13.49655
G1 X37.045 Y74.944 E13.51539
G1 X36.862 Y74.556 E13.52966
G1 X36.655 Y74.091 E13.54659
G1 X36.265 Y73.02 E13.5845
G1 X36.101 Y72.486 E13.60308
G1 X35.918 Y71.819 E13.62608
G1 X35.827 Y71.439 E13.63908
G1 X35.648 Y70.518 E13.67028
G1 X35.574 Y69.917 E13.69042
G1 X35.521 Y69.359 E13.70907
G1 X35.475 Y68.579 E13.73506
G1 X35.466 Y68.199 E13.7477
G1 X35.469 Y67.58 E13.76829
G1 X35.472 Y67.488 E13.77135
G1 X35.505 Y66.927 E13.79004
G1 X35.527 Y66.665 E13.79878
G1 X35.681 Y65.536 E13.83668
G1 X35.783 Y64.998 E13.85489
G1 X35.967 Y64.192 E13.88239
G1 X36.078 Y63.779 E13.89662
G1 X36.36 Y62.884 E13.92783
G1 X36.573 Y62.341 E13.94723
G1 X36.768 Y61.881 E13.96384
G1 X37.057 Y61.255 E13.98678
G1 X37.196 Y60.977 E13.99711
G1 X37.58 Y60.275 E14.02373
G1 X37.819 Y59.873 E14.03928
G1 X38.436 Y58.944 E14.07638
G1 X38.582 Y58.747 E14.08453
G1 X38.83 Y58.425 E14.09805
G1 X38.894 Y58.345 E14.10146
G1 X39.427 Y57.728 E14.12857
G1 X39.744 Y57.387 E14.14406
G1 X40.273 Y56.856 E14.16899
G1 X40.485 Y56.657 E14.17866
G1 X41.046 Y56.164 E14.2035
G1 X41.459 Y55.826 E14.22125
G0 F6000 X41.713 Y56.136
G1 F1200 X42.45 Y55.584 E14.25188
G1 X42.916 Y55.284 E14.27031
G1 X43.386 Y54.998 E14.28861
G1 X43.996 Y54.653 E14.31192
G1 X44.09 Y54.604 E14.31544
G1 X44.84 Y54.25 E14.34303
G1 X45.343 Y54.036 E14.36121
G1 X45.804 Y53.853 E14.37771
G1 X46.773 Y53.539 E14.41158
G1 X47.378 Y53.375 E14.43243
G1 X48.022 Y53.222 E14.45445
G1 X48.87 Y53.08 E14.48305
G1 X49.426 Y53.01 E14.50169
G1 X50.566 Y52.929 E14.5397
G1 X51.899 Y52.907 E14.58404
G1 X171.106 Y52.907 E18.54888
G1 X171.956 Y52.918 E18.57715
G1 X172.792 Y52.963 E18.605
G1 X173.027 Y52.985 E18.61285
G1 X173.939 Y53.111 E18.64347
G1 X174.533 Y53.237 E18.66367
G1 X174.785 Y53.298 E18.67229
G1 X175.669 Y53.553 E18.70289
G1 X176.221 Y53.755 E18.72244
G1 X176.469 Y53.854 E18.73132
G1 X177.308 Y54.233 E18.76194
G1 X177.875 Y54.54 E18.78339
G1 X178.081 Y54.66 E18.79132
G1 X178.855 Y55.157 E18.82191
G1 X179.232 Y55.436 E18.83751
G1 X179.431 Y55.59 E18.84588
G1 X180.254 Y56.297 E18.88197
G1 X180.296 Y56.337 E18.8839
G1 X180.739 Y56.784 E18.90483
G1 X180.877 Y56.932 E18.91156
G1 X181.663 Y57.881 E18.95254
G1 X181.802 Y58.07 E18.96035
G1 X182.315 Y58.834 E18.99095
G1 X182.625 Y59.379 E19.01181
G1 X182.745 Y59.605 E19.02032
G1 X183.141 Y60.436 E19.05093
G1 X183.346 Y60.957 E19.06956
G1 X183.431 Y61.191 E19.07784
G1 X183.708 Y62.069 E19.10846
G1 X183.818 Y62.52 E19.1239
G1 X183.87 Y62.755 E19.1319
G1 X184.029 Y63.662 E19.16253
G1 X184.091 Y64.26 E19.18253
G1 X184.11 Y64.516 E19.19106
G1 X184.135 Y64.997 E19.20708
G1 X184.145 Y65.345 E19.21866
G1 X184.149 Y65.648 E19.22874
G1 X184.149 Y75.906 E19.56992
G1 X184.139 Y76.647 E19.59457
G1 X184.087 Y77.566 E19.62519
G1 X184.01 Y78.16 E19.64511
G1 X183.973 Y78.394 E19.65299
G1 X183.79 Y79.296 E19.6836
G1 X183.529 Y80.179 E19.71423
G1 X183.008 Y81.429 E19.75927
G1 X182.894 Y81.66 E19.76784
G1 X182.452 Y82.467 E19.79844
G1 X181.94 Y83.233 E19.82908
G1 X181.365 Y83.951 E19.85968
G1 X180.906 Y84.442 E19.88203
G1 X180.736 Y84.613 E19.89005
G1 X179.949 Y85.329 E19.92544
G1 X179.197 Y85.947 E19.95781
G1 X177.197 Y87.634 E20.04484
G1 X175.292 Y89.338 E20.12985
G1 X173.461 Y91.068 E20.21363
G1 X171.673 Y92.859 E20.2978
G1 X169.93 Y94.703 E20.3822
G1 X168.267 Y96.569 E20.46533
G1 X166.617 Y98.526 E20.55047
G1 X165.05 Y100.495 E20.63417
G1 X163.52 Y102.536 E20.71901
G1 X162.086 Y104.566 E20.80167
G1 X160.67 Y106.694 E20.88669
G1 X159.342 Y108.819 E20.97003
G1 X158.036 Y111.045 E21.05587
G1 X156.844 Y113.212 E21.13813
G1 X155.69 Y115.465 E21.22232
G1 X154.588 Y117.774 E21.30742
G1 X153.561 Y120.088 E21.39162
G1 X152.609 Y122.409 E21.47506
G1 X151.708 Y124.802 E21.56011
G1 X150.9 Y127.143 E21.64248
G1 X150.133 Y129.586 E21.72764
G1 X149.448 Y132.008 E21.81136
G1 X148.82 Y134.491 E21.89654
G1 X148.272 Y136.94 E21.98001
G1 X147.794 Y139.422 E22.06408
G1 X147.385 Y141.916 E22.14814
G1 X147.047 Y144.413 E22.23195
G1 X146.78 Y146.918 E22.31573
G1 X146.582 Y149.456 E22.40041
G1 X146.454 Y152.039 E22.48642
G1 X146.416 Y153.338 E22.52964
G1 X146.349 Y154.256 E22.56026
G1 X146.203 Y155.165 E22.59088
G1 X145.978 Y156.058 E22.62151
G1 X145.677 Y156.928 E22.65213
G1 X145.301 Y157.768 E22.68274
G1 X144.854 Y158.573 E22.71336
G1 X144.338 Y159.336 E22.744
G1 X143.552 Y160.278 E22.7848
G1 X143.34 Y160.504 E22.79511
G1 X143.104 Y160.747 E22.80638
G1 X140.25 Y163.601 E22.94062
G1 X139.761 Y164.077 E22.96332
G1 X139.074 Y164.69 E22.99394
G1 X138.336 Y165.241 E23.02457
G1 X137.554 Y165.725 E23.05516
G1 X136.732 Y166.141 E23.0858
G1 X135.877 Y166.483 E23.11643
G1 X134.996 Y166.75 E23.14705
G1 X134.095 Y166.939 E23.17767
G1 X133.181 Y167.05 E23.20829
G1 X132.261 Y167.08 E23.23891
G1 X131.342 Y167.031 E23.26952
G1 X130.43 Y166.903 E23.30015
G1 X129.533 Y166.695 E23.33077
G1 X128.657 Y166.411 E23.3614
G1 X127.81 Y166.051 E23.39201
G1 X126.997 Y165.62 E23.42262
G1 X126.224 Y165.119 E23.45326
G1 X125.497 Y164.554 E23.48388
G1 X125.07 Y164.169 E23.503
G1 X124.834 Y163.945 E23.51383
G1 X124.636 Y163.752 E23.52302
G1 X44.641 Y83.756 E27.28576
G1 X44.172 Y83.274 E27.30813
G1 X43.774 Y82.842 E27.32767
G1 X43.468 Y82.488 E27.34323
G1 X42.137 Y80.909 E27.41192
G1 X40.414 Y78.977 E27.49802
G1 X40.025 Y78.561 E27.51696
G1 X39.866 Y78.387 E27.5248
G1 X39.666 Y78.163 E27.53479
G1 X39.386 Y77.836 E27.54911
G1 X39.247 Y77.667 E27.55639
G1 X39.014 Y77.373 E27.56886
G1 X38.949 Y77.288 E27.57242
G1 X38.505 Y76.662 E27.59795
G1 X38.204 Y76.203 E27.61621
G1 X37.726 Y75.399 E27.64732
G1 X37.652 Y75.261 E27.65252
G1 X37.407 Y74.774 E27.67066
G1 X37.224 Y74.386 E27.68492
G1 X37.023 Y73.934 E27.70138
G1 X36.647 Y72.903 E27.73788
G1 X36.483 Y72.369 E27.75646
G1 X36.307 Y71.726 E27.77863
G1 X36.216 Y71.346 E27.79163
G1 X36.041 Y70.442 E27.82225
G1 X35.972 Y69.879 E27.84112
G1 X35.919 Y69.321 E27.85976
G1 X35.875 Y68.57 E27.88478
G1 X35.866 Y68.19 E27.89742
G1 X35.869 Y67.594 E27.91725
G1 X35.872 Y67.502 E27.92031
G1 X35.903 Y66.96 E27.93836
G1 X35.925 Y66.698 E27.94711
G1 X36.074 Y65.611 E27.9836
G1 X36.176 Y65.073 E28.00181
G1 X36.353 Y64.296 E28.02832
G1 X36.464 Y63.883 E28.04254
G1 X36.742 Y63.005 E28.07317
G1 X36.942 Y62.497 E28.09133
G1 X37.137 Y62.037 E28.10795
G1 X37.415 Y61.434 E28.13004
G1 X37.554 Y61.156 E28.14037
G1 X37.924 Y60.479 E28.16603
G1 X38.163 Y60.077 E28.18159
G1 X38.758 Y59.183 E28.21731
G1 X38.904 Y58.986 E28.22546
G1 X39.143 Y58.675 E28.23851
G1 X39.207 Y58.595 E28.24192
G1 X39.72 Y58 E28.26804
G1 X40.037 Y57.659 E28.28353
G1 X40.546 Y57.147 E28.30754
G1 X40.758 Y56.948 E28.31721
G1 X41.3 Y56.474 E28.34116
G1 X41.713 Y56.136 E28.35891
G0 F6000 X41.966 Y56.445
G1 F1200 X42.689 Y55.905 E28.38893
G1 X43.124 Y55.625 E28.40613
G1 X43.594 Y55.339 E28.42443
G1 X44.181 Y55.008 E28.44685
G1 X44.275 Y54.959 E28.45037
G1 X44.997 Y54.618 E28.47693
G1 X45.5 Y54.404 E28.49511
G1 X45.945 Y54.227 E28.51104
G1 X46.877 Y53.925 E28.54362
G1 X47.482 Y53.761 E28.56447
G1 X48.104 Y53.613 E28.58574
G1 X48.92 Y53.477 E28.61325
G1 X49.476 Y53.407 E28.63189
G1 X50.572 Y53.329 E28.66844
G1 X51.899 Y53.307 E28.71258
G1 X171.106 Y53.307 E32.67742
G1 X171.95 Y53.318 E32.70549
G1 X172.755 Y53.361 E32.73231
G1 X172.99 Y53.383 E32.74016
G1 X173.884 Y53.507 E32.77017
G1 X174.439 Y53.625 E32.78905
G1 X174.691 Y53.686 E32.79767
G1 X175.558 Y53.937 E32.82769
G1 X176.073 Y54.127 E32.84595
G1 X176.321 Y54.226 E32.85483
G1 X177.144 Y54.598 E32.88487
G1 X177.673 Y54.885 E32.90489
G1 X177.879 Y55.005 E32.91282
G1 X178.988 Y55.752 E32.95729
G1 X179.187 Y55.906 E32.96566
G1 X179.978 Y56.587 E33.00037
G1 X180.02 Y56.627 E33.0023
G1 X180.446 Y57.057 E33.02244
G1 X180.584 Y57.205 E33.02917
G1 X181.341 Y58.118 E33.06861
G1 X181.48 Y58.307 E33.07642
G1 X181.982 Y59.057 E33.10643
G1 X182.272 Y59.567 E33.12595
G1 X182.392 Y59.793 E33.13446
G1 X182.78 Y60.608 E33.16448
G1 X182.97 Y61.094 E33.18183
G1 X183.055 Y61.328 E33.19011
G1 X183.427 Y62.606 E33.23439
G1 X183.479 Y62.841 E33.24239
G1 X183.635 Y63.731 E33.27244
G1 X183.692 Y64.29 E33.29113
G1 X183.711 Y64.546 E33.29967
G1 X183.735 Y65.008 E33.31506
G1 X183.745 Y65.356 E33.32664
G1 X183.749 Y65.648 E33.33635
G1 X183.749 Y75.901 E33.67737
G1 X183.739 Y76.642 E33.70201
G1 X183.687 Y77.543 E33.73203
G1 X183.615 Y78.097 E33.75061
G1 X183.578 Y78.331 E33.75849
G1 X183.397 Y79.216 E33.78854
G1 X183.139 Y80.081 E33.81856
G1 X182.65 Y81.252 E33.86077
G1 X182.536 Y81.483 E33.86933
G1 X182.101 Y82.274 E33.89936
G1 X181.597 Y83.024 E33.92941
G1 X181.029 Y83.726 E33.95945
G1 X180.623 Y84.16 E33.97921
G1 X180.453 Y84.331 E33.98723
G1 X179.695 Y85.02 E34.0213
G1 X178.925 Y85.652 E34.05444
G1 X176.918 Y87.346 E34.14179
G1 X175.034 Y89.031 E34.22586
G1 X173.186 Y90.777 E34.31041
G1 X171.381 Y92.585 E34.39539
G1 X169.64 Y94.428 E34.47971
G1 X167.963 Y96.308 E34.5635
G1 X166.314 Y98.265 E34.64862
G1 X164.733 Y100.252 E34.73307
G1 X163.218 Y102.272 E34.81706
G1 X161.731 Y104.376 E34.90275
G1 X160.341 Y106.465 E34.9862
G1 X159.001 Y108.61 E35.07032
G1 X157.699 Y110.829 E35.1559
G1 X156.481 Y113.044 E35.23997
G1 X155.331 Y115.289 E35.32387
G1 X154.219 Y117.619 E35.40974
G1 X153.197 Y119.922 E35.49354
G1 X152.228 Y122.282 E35.57839
G1 X151.339 Y124.646 E35.66239
G1 X150.516 Y127.03 E35.74628
G1 X149.752 Y129.462 E35.83106
G1 X149.061 Y131.907 E35.91557
G1 X148.436 Y134.377 E36.00031
G1 X147.876 Y136.882 E36.08568
G1 X147.4 Y139.353 E36.16938
G1 X146.994 Y141.829 E36.25283
G1 X146.652 Y144.358 E36.33771
G1 X146.379 Y146.912 E36.42314
G1 X146.182 Y149.441 E36.50751
G1 X146.057 Y151.958 E36.59133
G1 X146.017 Y153.326 E36.63685
G1 X145.95 Y154.227 E36.6669
G1 X145.804 Y155.118 E36.69693
G1 X145.58 Y155.993 E36.72697
G1 X145.279 Y156.845 E36.75703
G1 X144.904 Y157.666 E36.78705
G1 X144.458 Y158.452 E36.8171
G1 X143.945 Y159.194 E36.84711
G1 X143.26 Y160.004 E36.88239
G1 X143.048 Y160.23 E36.8927
G1 X142.821 Y160.464 E36.90354
G1 X139.971 Y163.314 E37.0376
G1 X139.482 Y163.79 E37.06029
G1 X138.807 Y164.391 E37.09035
G1 X138.082 Y164.929 E37.12038
G1 X137.313 Y165.402 E37.15041
G1 X136.504 Y165.804 E37.18045
G1 X135.663 Y166.134 E37.2105
G1 X134.797 Y166.387 E37.24051
G1 X133.911 Y166.563 E37.27055
G1 X133.013 Y166.661 E37.3006
G1 X132.11 Y166.678 E37.33064
G1 X131.209 Y166.615 E37.36068
G1 X130.317 Y166.473 E37.39072
G1 X129.442 Y166.252 E37.42074
G1 X128.589 Y165.955 E37.45078
G1 X127.765 Y165.584 E37.48083
G1 X126.978 Y165.141 E37.51087
G1 X126.233 Y164.631 E37.5409
G1 X125.345 Y163.879 E37.5796
G1 X125.109 Y163.655 E37.59043
G1 X124.919 Y163.469 E37.59927
G1 X44.928 Y83.477 E41.36182
G1 X44.459 Y82.995 E41.38419
G1 X44.076 Y82.579 E41.403
G1 X43.774 Y82.23 E41.41835
G1 X42.426 Y80.63 E41.48794
G1 X40.743 Y78.744 E41.57201
G1 X40.317 Y78.288 E41.59276
G1 X39.964 Y77.896 E41.61031
G1 X39.695 Y77.582 E41.62406
