;FLAVOR:Marlin
;TIME:43646
;Filament used: 31.0308m
;Layer height: 0.2
;MINX:7.5
;MINY:8.5
;MINZ:0.2
;MAXX:212.5
;MAXY:215.598
;MAXZ:28
;Generated with Creality Slicer 4.8.2-69
M140 S60
M105
M190 S60
M104 S200
M105
M109 S200
M82 ;absolute extrusion mode
M201 X500.00 Y500.00 Z100.00 E5000.00 ;Setup machine max acceleration
M203 X500.00 Y500.00 Z10.00 E50.00 ;Setup machine max feedrate
M204 P500.00 R1000.00 T500.00 ;Setup Print/Retract/Travel acceleration
M205 X8.00 Y8.00 Z0.40 E5.00 ;Setup Jerk
M220 S100 ;Reset Feedrate
M221 S100 ;Reset Flowrate

G28 ;Home

G92 E0 ;Reset Extruder
G1 Z2.0 F3000 ;Move Z Axis up
G1 X10.1 Y20 Z0.28 F5000.0 ;Move to start position
G1 X10.1 Y200.0 Z0.28 F1500.0 E15 ;Draw the first line
G1 X10.4 Y200.0 Z0.28 F5000.0 ;Move to side a little
G1 X10.4 Y20 Z0.28 F1500.0 E30 ;Draw the second line
G92 E0 ;Reset Extruder
G1 Z2.0 F3000 ;Move Z Axis up

G92 E0
G92 E0
G1 F3600 E-8
;LAYER_COUNT:140
;LAYER:0
M107
G0 F6000 X10.698 Y11.764 Z0.2
;TYPE:SKIRT
G1 F3600 E0
G1 F1200 X11.386 Y11.127 E0.03119
G1 X12.126 Y10.551 E0.06237
G1 X12.912 Y10.039 E0.09357
G1 X13.739 Y9.597 E0.12476
G1 X14.601 Y9.227 E0.15596
G1 X15.491 Y8.931 E0.18716
G1 X16.403 Y8.713 E0.21835
G1 X17.33 Y8.572 E0.24953
G1 X18.201 Y8.513 E0.27857
G1 X18.522 Y8.504 E0.28925
G1 X18.83 Y8.5 E0.29949
G1 X200.793 Y8.5 E6.35161
G1 X201.649 Y8.511 E6.38008
G1 X202.585 Y8.565 E6.41126
G1 X203.513 Y8.697 E6.44244
G1 X204.427 Y8.909 E6.47365
G1 X205.319 Y9.198 E6.50483
G1 X206.184 Y9.561 E6.53603
G1 X207.014 Y9.997 E6.56722
G1 X207.805 Y10.502 E6.59843
G1 X208.549 Y11.073 E6.62962
G1 X209.242 Y11.705 E6.66082
G1 X209.879 Y12.393 E6.692
G1 X210.454 Y13.134 E6.7232
G1 X210.965 Y13.92 E6.75438
G1 X211.407 Y14.748 E6.7856
G1 X211.776 Y15.61 E6.81679
G1 X212.071 Y16.5 E6.84797
G1 X212.289 Y17.412 E6.87916
G1 X212.429 Y18.34 E6.91037
G1 X212.487 Y19.201 E6.93908
G1 X212.496 Y19.521 E6.94972
G1 X212.5 Y19.83 E6.96
G1 X212.499 Y189.926 E12.61742
G1 X212.489 Y190.649 E12.64147
G1 X212.436 Y191.586 E12.67268
G1 X212.304 Y192.514 E12.70386
G1 X212.092 Y193.428 E12.73506
G1 X211.804 Y194.32 E12.76624
G1 X211.441 Y195.185 E12.79744
G1 X211.006 Y196.016 E12.82864
G1 X210.501 Y196.806 E12.85982
G1 X210.138 Y197.294 E12.88005
G1 X209.986 Y197.488 E12.88825
G1 X208.4 Y199.57 E12.9753
G1 X206.938 Y201.609 E13.05875
G1 X205.528 Y203.695 E13.14249
G1 X204.179 Y205.819 E13.22618
G1 X202.871 Y208.014 E13.31117
G1 X201.909 Y209.734 E13.37671
G1 X201.775 Y209.974 E13.38586
G1 X201.281 Y210.772 E13.41707
G1 X200.721 Y211.524 E13.44826
G1 X200.1 Y212.226 E13.47943
G1 X199.42 Y212.873 E13.51065
G1 X198.688 Y213.459 E13.54183
G1 X197.909 Y213.981 E13.57302
G1 X197.088 Y214.434 E13.60421
G1 X196.231 Y214.816 E13.63542
G1 X195.345 Y215.124 E13.66662
G1 X194.436 Y215.355 E13.69781
G1 X193.511 Y215.508 E13.72899
G1 X192.525 Y215.583 E13.76188
G1 X192.203 Y215.593 E13.7726
G1 X191.863 Y215.598 E13.78391
G1 X182.747 Y215.598 E14.08711
G1 X182.037 Y215.588 E14.11073
G1 X181.413 Y215.561 E14.1315
G1 X180.353 Y215.486 E14.16684
G1 X180.082 Y215.474 E14.17586
G1 X178.214 Y215.352 E14.23813
G1 X175.71 Y215.259 E14.32147
G1 X173.638 Y215.236 E14.39039
G1 X167.342 Y215.236 E14.59979
G1 X166.634 Y215.226 E14.62334
G1 X165.697 Y215.173 E14.65456
G1 X164.769 Y215.04 E14.68574
G1 X163.855 Y214.829 E14.71694
G1 X162.963 Y214.54 E14.74812
G1 X162.098 Y214.177 E14.77933
G1 X161.288 Y213.752 E14.80975
G1 X160.821 Y213.482 E14.82769
G1 X158.462 Y212.165 E14.91755
G1 X156.271 Y211.022 E14.99974
G1 X153.992 Y209.914 E15.08403
G1 X151.705 Y208.883 E15.16747
G1 X149.37 Y207.906 E15.25165
G1 X147.002 Y206.993 E15.33606
G1 X144.646 Y206.163 E15.41914
G1 X142.269 Y205.399 E15.50219
G1 X139.835 Y204.691 E15.5865
G1 X137.411 Y204.061 E15.6698
G1 X134.933 Y203.491 E15.75437
G1 X132.463 Y202.994 E15.83817
G1 X130.027 Y202.578 E15.92036
G1 X127.502 Y202.22 E16.00519
G1 X124.987 Y201.934 E16.08937
G1 X122.526 Y201.725 E16.17152
G1 X120.029 Y201.584 E16.2547
G1 X116.079 Y201.5 E16.38611
G1 X96.948 Y201.5 E17.02241
G1 X94.34 Y201.537 E17.10916
G1 X91.818 Y201.644 E17.19312
G1 X89.323 Y201.821 E17.27631
G1 X86.825 Y202.069 E17.3598
G1 X84.336 Y202.387 E17.44326
G1 X81.827 Y202.781 E17.52773
G1 X79.361 Y203.24 E17.61116
G1 X76.91 Y203.767 E17.69455
G1 X74.45 Y204.37 E17.77879
G1 X72.016 Y205.04 E17.86275
G1 X69.637 Y205.768 E17.9455
G1 X67.234 Y206.579 E18.02986
G1 X64.864 Y207.453 E18.11387
G1 X62.531 Y208.389 E18.19748
G1 X60.239 Y209.386 E18.28061
G1 X57.929 Y210.47 E18.36548
G1 X55.58 Y211.654 E18.45297
G1 X54.842 Y212.041 E18.48069
G1 X53.993 Y212.44 E18.51189
G1 X53.113 Y212.766 E18.5431
G1 X52.209 Y213.015 E18.57429
G1 X51.287 Y213.186 E18.60548
G1 X50.694 Y213.254 E18.62533
G1 X49.947 Y213.319 E18.65027
G1 X47.301 Y213.585 E18.73872
G1 X44.819 Y213.906 E18.82196
G1 X42.315 Y214.303 E18.90628
G1 X40.635 Y214.615 E18.96312
G1 X40.121 Y214.703 E18.98046
G1 X39.191 Y214.822 E19.01164
G1 X38.591 Y214.856 E19.03163
G1 X38.287 Y214.865 E19.04175
G1 X37.962 Y214.87 E19.05256
G1 X28.838 Y214.87 E19.35602
G1 X28.148 Y214.86 E19.37898
G1 X27.211 Y214.806 E19.41019
G1 X26.283 Y214.673 E19.44137
G1 X25.369 Y214.461 E19.47258
G1 X24.477 Y214.173 E19.50376
G1 X23.612 Y213.809 E19.53497
G1 X22.598 Y213.264 E19.57326
G1 X21.79 Y212.726 E19.60554
G1 X21.057 Y212.141 E19.63674
G1 X20.376 Y211.496 E19.66793
G1 X19.753 Y210.795 E19.69913
G1 X18.994 Y209.743 E19.74227
G1 X18.382 Y208.777 E19.78031
G1 X18.02 Y208.191 E19.80322
G1 X16.639 Y206.09 E19.88684
G1 X15.191 Y204.02 E19.97086
G1 X13.685 Y201.989 E20.05496
G1 X12.137 Y200.019 E20.13829
G1 X10.506 Y198.061 E20.22305
G1 X10.151 Y197.646 E20.24121
G1 X9.572 Y196.908 E20.27241
G1 X9.058 Y196.123 E20.30362
G1 X8.613 Y195.298 E20.33479
G1 X8.24 Y194.437 E20.366
G1 X7.942 Y193.548 E20.39719
G1 X7.72 Y192.637 E20.42837
G1 X7.577 Y191.71 E20.45957
G1 X7.515 Y190.833 E20.48881
G1 X7.505 Y190.507 E20.49966
G1 X7.5 Y190.17 E20.51087
G1 X7.501 Y20.025 E26.16992
G1 X7.51 Y19.36 E26.19204
G1 X7.563 Y18.424 E26.22322
G1 X7.695 Y17.495 E26.25443
G1 X7.906 Y16.581 E26.28563
G1 X8.194 Y15.689 E26.3168
G1 X8.557 Y14.824 E26.348
G1 X8.992 Y13.993 E26.3792
G1 X9.496 Y13.203 E26.41037
G1 X10.066 Y12.458 E26.44157
G1 X10.698 Y11.764 E26.47279
G0 F6000 X11.089 Y11.939
G1 F1200 X11.774 Y11.323 E26.50343
G1 X12.51 Y10.77 E26.53405
G1 X13.291 Y10.282 E26.56468
G1 X14.111 Y9.864 E26.59529
G1 X14.965 Y9.519 E26.62592
G1 X15.845 Y9.249 E26.65654
G1 X16.745 Y9.057 E26.68715
G1 X17.659 Y8.943 E26.71778
G1 X18.212 Y8.913 E26.7362
G1 X18.533 Y8.904 E26.74688
G1 X18.83 Y8.9 E26.75676
G1 X200.793 Y8.9 E32.80888
G1 X201.643 Y8.911 E32.83715
G1 X202.562 Y8.964 E32.86777
G1 X203.473 Y9.097 E32.89839
G1 X204.369 Y9.308 E32.929
G1 X205.243 Y9.596 E32.95961
G1 X206.09 Y9.959 E32.99026
G1 X206.901 Y10.394 E33.02087
G1 X207.671 Y10.898 E33.05148
G1 X208.395 Y11.467 E33.0821
G1 X209.067 Y12.097 E33.11274
G1 X209.682 Y12.782 E33.14336
G1 X210.235 Y13.518 E33.17398
G1 X210.722 Y14.299 E33.20459
G1 X211.139 Y15.12 E33.23522
G1 X211.484 Y15.974 E33.26585
G1 X211.753 Y16.854 E33.29646
G1 X211.945 Y17.755 E33.3271
G1 X212.058 Y18.668 E33.3577
G1 X212.087 Y19.212 E33.37582
G1 X212.096 Y19.532 E33.38646
G1 X212.1 Y19.83 E33.39638
G1 X212.099 Y189.921 E39.05363
G1 X212.089 Y190.644 E39.07767
G1 X212.036 Y191.563 E39.10829
G1 X211.904 Y192.474 E39.13891
G1 X211.693 Y193.37 E39.16952
G1 X211.405 Y194.245 E39.20016
G1 X211.043 Y195.091 E39.23077
G1 X210.608 Y195.902 E39.26138
G1 X210.105 Y196.673 E39.292
G1 X209.824 Y197.047 E39.30756
G1 X209.641 Y197.28 E39.31741
G1 X208.085 Y199.323 E39.40282
G1 X206.597 Y201.399 E39.48778
G1 X205.191 Y203.478 E39.57125
G1 X203.838 Y205.609 E39.65521
G1 X202.539 Y207.788 E39.73958
G1 X201.563 Y209.534 E39.80611
G1 X201.423 Y209.776 E39.81541
G1 X201.376 Y209.867 E39.81882
G1 X200.883 Y210.644 E39.84943
G1 X200.325 Y211.376 E39.88004
G1 X199.705 Y212.057 E39.91067
G1 X199.029 Y212.682 E39.94129
G1 X198.301 Y213.245 E39.9719
G1 X197.526 Y213.743 E40.00254
G1 X196.712 Y214.172 E40.03314
G1 X195.863 Y214.529 E40.06378
G1 X194.987 Y214.811 E40.09438
G1 X194.089 Y215.015 E40.12501
G1 X193.177 Y215.141 E40.15563
G1 X192.513 Y215.183 E40.17776
G1 X192.191 Y215.193 E40.18848
G1 X191.863 Y215.198 E40.19939
G1 X182.753 Y215.198 E40.50239
G1 X182.043 Y215.188 E40.52601
G1 X181.442 Y215.162 E40.54601
G1 X180.24 Y215.077 E40.58609
G1 X180.108 Y215.075 E40.59048
G1 X178.255 Y214.954 E40.65225
G1 X175.691 Y214.859 E40.73758
G1 X173.642 Y214.836 E40.80574
G1 X167.347 Y214.836 E41.01511
G1 X166.639 Y214.826 E41.03866
G1 X165.72 Y214.773 E41.06928
G1 X164.809 Y214.64 E41.0999
G1 X163.913 Y214.429 E41.13051
G1 X163.039 Y214.141 E41.16112
G1 X162.192 Y213.779 E41.19176
G1 X161.488 Y213.406 E41.21826
G1 X160.944 Y213.092 E41.23915
G1 X158.69 Y211.833 E41.32502
G1 X156.424 Y210.651 E41.41002
G1 X154.195 Y209.568 E41.49245
G1 X151.845 Y208.507 E41.57821
G1 X149.52 Y207.535 E41.66202
G1 X147.142 Y206.618 E41.74679
G1 X144.764 Y205.781 E41.83064
G1 X142.388 Y205.017 E41.91365
G1 X139.951 Y204.309 E41.99806
G1 X137.488 Y203.668 E42.08271
G1 X135.03 Y203.102 E42.1666
G1 X132.544 Y202.603 E42.25093
G1 X130.078 Y202.182 E42.33414
G1 X127.532 Y201.82 E42.41967
G1 X125.065 Y201.54 E42.50225
G1 X122.514 Y201.323 E42.5874
G1 X120.059 Y201.184 E42.66919
G1 X116.088 Y201.1 E42.80129
G1 X96.942 Y201.1 E43.43809
G1 X94.317 Y201.137 E43.52541
G1 X91.809 Y201.244 E43.6089
G1 X89.292 Y201.422 E43.69283
G1 X86.768 Y201.672 E43.77718
G1 X84.26 Y201.993 E43.86128
G1 X81.798 Y202.38 E43.94417
G1 X79.276 Y202.849 E44.02949
G1 X76.802 Y203.381 E44.11366
G1 X74.354 Y203.981 E44.19749
G1 X71.931 Y204.648 E44.28108
G1 X69.497 Y205.393 E44.36574
G1 X67.072 Y206.211 E44.45086
G1 X64.755 Y207.066 E44.533
G1 X62.358 Y208.028 E44.61891
G1 X60.059 Y209.028 E44.7023
G1 X57.786 Y210.094 E44.7858
G1 X55.393 Y211.301 E44.87494
G1 X54.656 Y211.687 E44.90261
G1 X53.823 Y212.078 E44.93322
G1 X52.959 Y212.395 E44.96383
G1 X52.07 Y212.637 E44.99447
G1 X51.164 Y212.8 E45.02509
G1 X50.659 Y212.856 E45.04199
G1 X49.875 Y212.924 E45.06816
G1 X47.242 Y213.189 E45.15618
G1 X44.781 Y213.508 E45.23872
G1 X42.251 Y213.908 E45.32391
G1 X40.568 Y214.221 E45.38085
G1 X40.054 Y214.309 E45.39819
G1 X39.14 Y214.425 E45.42883
G1 X38.579 Y214.456 E45.44752
G1 X38.275 Y214.465 E45.45764
G1 X37.962 Y214.47 E45.46805
G1 X28.843 Y214.47 E45.77135
G1 X28.153 Y214.46 E45.7943
G1 X27.234 Y214.407 E45.82492
G1 X26.323 Y214.274 E45.85554
G1 X25.427 Y214.062 E45.88616
G1 X24.553 Y213.774 E45.91677
G1 X23.707 Y213.411 E45.94739
G1 X22.806 Y212.922 E45.98148
G1 X22.012 Y212.393 E46.01322
G1 X21.294 Y211.817 E46.04383
G1 X20.629 Y211.181 E46.07444
G1 X20.021 Y210.49 E46.10505
G1 X19.332 Y209.528 E46.14441
G1 X18.722 Y208.567 E46.18227
G1 X18.361 Y207.983 E46.2051
G1 X16.957 Y205.847 E46.29012
G1 X15.525 Y203.798 E46.37326
G1 X14.005 Y201.749 E46.45812
G1 X12.442 Y199.761 E46.54223
G1 X10.798 Y197.787 E46.62767
G1 X10.455 Y197.386 E46.64522
G1 X9.887 Y196.661 E46.67585
G1 X9.385 Y195.89 E46.70645
G1 X8.951 Y195.077 E46.7371
G1 X8.59 Y194.231 E46.7677
G1 X8.303 Y193.356 E46.79833
G1 X8.093 Y192.459 E46.82897
G1 X7.962 Y191.548 E46.85958
G1 X7.915 Y190.821 E46.88381
G1 X7.905 Y190.495 E46.89466
G1 X7.9 Y190.17 E46.90547
G1 X7.901 Y20.031 E52.56431
G1 X7.91 Y19.366 E52.58643
G1 X7.962 Y18.446 E52.61708
G1 X8.094 Y17.535 E52.6477
G1 X8.305 Y16.639 E52.67831
G1 X8.592 Y15.764 E52.70894
G1 X8.955 Y14.918 E52.73956
G1 X9.389 Y14.106 E52.77018
G1 X9.892 Y13.335 E52.8008
G1 X10.461 Y12.611 E52.83143
G1 X11.089 Y11.939 E52.86202
G0 F6000 X11.481 Y12.117
G1 F1200 X12.162 Y11.524 E52.89205
G1 X12.894 Y10.994 E52.92211
G1 X13.669 Y10.531 E52.95214
G1 X14.482 Y10.138 E52.98217
G1 X15.327 Y9.818 E53.01223
G1 X16.196 Y9.575 E53.04224
G1 X17.084 Y9.409 E53.07228
G1 X18.223 Y9.313 E53.1103
G1 X18.544 Y9.304 E53.12098
G1 X18.83 Y9.3 E53.1305
G1 X200.793 Y9.3 E59.18261
G1 X201.637 Y9.311 E59.21068
G1 X202.539 Y9.364 E59.24074
G1 X203.432 Y9.496 E59.27076
G1 X204.31 Y9.707 E59.30079
G1 X205.166 Y9.995 E59.33083
G1 X205.993 Y10.357 E59.36086
G1 X206.785 Y10.792 E59.39091
G1 X207.536 Y11.294 E59.42096
G1 X208.239 Y11.861 E59.451
G1 X208.889 Y12.488 E59.48103
G1 X209.481 Y13.17 E59.51107
G1 X210.011 Y13.901 E59.5411
G1 X210.473 Y14.677 E59.57114
G1 X210.866 Y15.49 E59.60117
G1 X211.184 Y16.335 E59.6312
G1 X211.427 Y17.205 E59.66125
G1 X211.592 Y18.093 E59.69129
G1 X211.687 Y19.223 E59.729
G1 X211.696 Y19.543 E59.73965
G1 X211.7 Y19.83 E59.7492
G1 X211.699 Y189.915 E65.40625
G1 X211.689 Y190.638 E65.4303
G1 X211.637 Y191.54 E65.46035
G1 X211.505 Y192.433 E65.49037
G1 X211.294 Y193.311 E65.52041
G1 X211.007 Y194.167 E65.55044
G1 X210.645 Y194.995 E65.58049
G1 X210.211 Y195.787 E65.61053
G1 X209.509 Y196.8 E65.65152
G1 X209.352 Y197 E65.65998
G1 X207.757 Y199.093 E65.7475
G1 X206.281 Y201.152 E65.83176
G1 X204.849 Y203.27 E65.9168
G1 X203.49 Y205.412 E66.00117
G1 X202.19 Y207.591 E66.08556
G1 X201.217 Y209.334 E66.15196
G1 X201.028 Y209.661 E66.16452
G1 X200.977 Y209.757 E66.16813
G1 X200.486 Y210.514 E66.19814
G1 X199.929 Y211.225 E66.22818
G1 X199.311 Y211.885 E66.25826
G1 X198.638 Y212.486 E66.28827
G1 X197.914 Y213.026 E66.31831
G1 X197.145 Y213.5 E66.34835
G1 X196.338 Y213.904 E66.37837
G1 X195.497 Y214.235 E66.40843
G1 X194.631 Y214.49 E66.43846
G1 X193.746 Y214.668 E66.46848
G1 X192.501 Y214.783 E66.51007
G1 X192.179 Y214.793 E66.52078
G1 X191.863 Y214.798 E66.53129
G1 X182.758 Y214.798 E66.83413
G1 X182.048 Y214.788 E66.85774
G1 X181.47 Y214.763 E66.87698
G1 X180.288 Y214.679 E66.9164
G1 X180.134 Y214.675 E66.92152
G1 X178.297 Y214.555 E66.98275
G1 X175.709 Y214.459 E67.06889
G1 X173.647 Y214.436 E67.13747
G1 X167.353 Y214.436 E67.34681
G1 X166.645 Y214.426 E67.37036
G1 X165.743 Y214.373 E67.40042
G1 X164.85 Y214.241 E67.43044
G1 X163.972 Y214.03 E67.46047
G1 X163.116 Y213.743 E67.4905
G1 X162.288 Y213.38 E67.52057
G1 X161.688 Y213.06 E67.54319
G1 X161.133 Y212.739 E67.56451
G1 X158.863 Y211.472 E67.65098
G1 X156.605 Y210.294 E67.73568
G1 X154.349 Y209.198 E67.81911
G1 X152.015 Y208.145 E67.90427
G1 X149.663 Y207.161 E67.98907
G1 X147.301 Y206.25 E68.07327
G1 X144.914 Y205.41 E68.15743
G1 X142.475 Y204.626 E68.24264
G1 X140.059 Y203.923 E68.32633
G1 X137.581 Y203.279 E68.41149
G1 X135.12 Y202.713 E68.49548
G1 X132.619 Y202.21 E68.58033
G1 X130.096 Y201.779 E68.66546
G1 X127.636 Y201.43 E68.7481
G1 X125.073 Y201.139 E68.83389
G1 X122.569 Y200.925 E68.91748
G1 X120.063 Y200.784 E69.00096
G1 X116.096 Y200.7 E69.13293
G1 X96.936 Y200.7 E69.7702
G1 X94.33 Y200.737 E69.85688
G1 X91.762 Y200.846 E69.94237
G1 X89.26 Y201.023 E70.0258
G1 X86.748 Y201.272 E70.10975
G1 X84.185 Y201.6 E70.1957
G1 X81.7 Y201.991 E70.27936
G1 X79.217 Y202.452 E70.36336
G1 X76.736 Y202.986 E70.44777
G1 X74.258 Y203.593 E70.53262
G1 X71.771 Y204.278 E70.61842
G1 X69.399 Y205.004 E70.70093
G1 X66.954 Y205.829 E70.78675
G1 X64.574 Y206.707 E70.87113
G1 X62.229 Y207.648 E70.95517
G1 X59.895 Y208.663 E71.03982
G1 X57.615 Y209.733 E71.12359
G1 X55.181 Y210.96 E71.21425
G1 X54.471 Y211.332 E71.24091
G1 X53.653 Y211.715 E71.27095
G1 X52.804 Y212.025 E71.30101
G1 X51.932 Y212.258 E71.33103
G1 X50.625 Y212.457 E71.375
G1 X49.871 Y212.523 E71.40018
G1 X47.222 Y212.789 E71.48873
G1 X44.699 Y213.116 E71.57334
G1 X42.193 Y213.512 E71.65773
G1 X40.5 Y213.827 E71.715
G1 X39.986 Y213.915 E71.73235
G1 X39.09 Y214.028 E71.76238
G1 X38.567 Y214.057 E71.77981
G1 X38.263 Y214.066 E71.78992
G1 X37.962 Y214.07 E71.79993
G1 X28.849 Y214.07 E72.10303
G1 X28.159 Y214.06 E72.12598
G1 X27.258 Y214.007 E72.156
G1 X26.364 Y213.874 E72.18607
G1 X25.486 Y213.663 E72.2161
G1 X24.63 Y213.375 E72.24614
G1 X23.803 Y213.013 E72.27616
G1 X22.985 Y212.563 E72.30722
G1 X22.235 Y212.06 E72.33725
G1 X21.532 Y211.494 E72.36727
G1 X20.882 Y210.867 E72.39731
G1 X20.29 Y210.185 E72.42735
G1 X19.669 Y209.314 E72.46292
G1 X19.062 Y208.357 E72.50062
G1 X18.676 Y207.733 E72.52502
G1 X17.303 Y205.644 E72.60817
G1 X15.83 Y203.536 E72.6937
G1 X14.339 Y201.526 E72.77694
G1 X12.766 Y199.525 E72.86159
G1 X11.08 Y197.501 E72.94921
G1 X10.759 Y197.126 E72.96563
